X:52
T:Tullochgorum
Z:Jack Campin, http://www.campin.me.uk/
F:Jack Campin's Nine-Note Tunebook
% last edit 03-02-2013
S:"Amateur": Preceptor for the Great Highland Bagpipe, early 19th century
N:gracenotes omitted
M:C
L:1/8
Q:1/4=120
K:DMix
A|:F>D A>D G<C E2|F>D A>D F>G A>d |\
   F>D A>D G<C E2|
                  F>D A>D G2  FE :|\
   D>d A>B G<C E2|D>d A>d F>d A>d |
[1 D>d A>B G<C E2|D>d A>B G2  F>E:|\
[2 D>d A>B c<G E2|D>d A>B G2  F>E|]

